modules/hawcons-stroke/icons/certificate.svg

<?xml version="1.0" encoding="UTF-8" standalone="no"?>
<svg width="32px" height="32px" viewBox="0 0 32 32" version="1.1" xmlns="http://www.w3.org/2000/svg" xmlns:xlink="http://www.w3.org/1999/xlink" xmlns:sketch="http://www.bohemiancoding.com/sketch/ns">
    <!-- Generator: Sketch 3.0.3 (7891) - http://www.bohemiancoding.com/sketch -->
    <title>icon 138 certificate</title>
    <desc>Created with Sketch.</desc>
    <defs></defs>
    <g id="Page-1" stroke="none" stroke-width="1" fill="none" fill-rule="evenodd" sketch:type="MSPage">
        <g id="icon-138-certificate" sketch:type="MSArtboardGroup" fill="#929292">
            <path d="M13,19.9494914 L13,22 L25.9975383,22 C26.5511826,22 27,21.5510798 27,20.992516 L27,8.00748397 C27,7.45106594 26.5605417,7 25.9975383,7 L6.00246167,7 C5.44881738,7 5,7.44892021 5,8.00748397 L5,20.992516 C5,21.5489341 5.43945834,22 6.00246167,22 L8,22 L8,19.9494914 C7.38140648,19.3182229 7,18.4536526 7,17.5 C7,15.5670033 8.56700328,14 10.5,14 C12.4329967,14 14,15.5670033 14,17.5 C14,18.4536526 13.6185935,19.3182229 13,19.9494914 L13,19.9494914 L13,19.9494914 Z M9,20.6631845 L9,24.5999756 L10.5,23.1000061 L12,24.5999756 L12,20.6631845 C11.5453723,20.8791545 11.0367987,21 10.5,21 C9.96320134,21 9.45462768,20.8791545 9,20.6631845 L9,20.6631845 L9,20.6631845 Z M8,23 L6.00494659,23 C4.89702623,23 4,22.104522 4,20.9998938 L4,8.00010618 C4,6.89005841 4.89764516,6 6.00494659,6 L25.9950534,6 C27.1029738,6 28,6.89547804 28,8.00010618 L28,20.9998938 C28,22.1099416 27.1023548,23 25.9950534,23 L13,23 L13,27 L10.5,24.5 L8,27 L8,23 L8,23 Z M7,11 L7,12 L25,12 L25,11 L7,11 L7,11 Z M16,14 L16,15 L25,15 L25,14 L16,14 L16,14 Z M19,17 L19,18 L25,18 L25,17 L19,17 L19,17 Z M10.5,20 C11.8807119,20 13,18.8807119 13,17.5 C13,16.1192881 11.8807119,15 10.5,15 C9.11928806,15 8,16.1192881 8,17.5 C8,18.8807119 9.11928806,20 10.5,20 L10.5,20 Z" id="certificate" sketch:type="MSShapeGroup"></path>
        </g>
    </g>
</svg>

<svg width="32" height="32" viewBox="0 0 32 32" xmlns="http://www.w3.org/2000/svg"><path d="M13 19.95V22h12.998C26.55 22 27 21.551 27 20.993V8.007A.999.999 0 0 0 25.998 7H6.002C5.45 7 5 7.449 5 8.007v12.986A.999.999 0 0 0 6.002 22H8v-2.05a3.5 3.5 0 1 1 5 0zm-4 .713V24.6l1.5-1.5 1.5 1.5v-3.937a3.486 3.486 0 0 1-1.5.337c-.537 0-1.045-.12-1.5-.337zM8 23H6.005A2.002 2.002 0 0 1 4 21V8a2 2 0 0 1 2.005-2h19.99C27.103 6 28 6.895 28 8v13a2 2 0 0 1-2.005 2H13v4l-2.5-2.5L8 27v-4zM7 11v1h18v-1H7zm9 3v1h9v-1h-9zm3 3v1h6v-1h-6zm-8.5 3a2.5 2.5 0 1 0 0-5 2.5 2.5 0 0 0 0 5z" fill="#929292" fill-rule="evenodd"/></svg>
